src/food-drink/food-sweet/1F369.svg

<svg id="emoji" viewBox="0 0 72 72" xmlns="http://www.w3.org/2000/svg">
 <g id="grid">
  <path d="M68,4V68H4V4H68m4-4H0V72H72V0Z" fill="#b3b3b3"/>
  <path d="m12.923 10.958h46.154a1.9231 1.9231 0 0 1 1.9231 1.9231v46.154a1.9231 1.9231 0 0 1-1.9231 1.9231h-46.154a1.9231 1.9231 0 0 1-1.9231-1.9231v-46.154a1.923 1.923 0 0 1 1.923-1.923z" fill="none" stroke="#00a5ff" stroke-miterlimit="10" stroke-width=".1"/>
  <rect x="16" y="4" width="40" height="64" rx="2.2537" fill="none" stroke="#00a5ff" stroke-miterlimit="10" stroke-width=".1"/>
  <rect transform="translate(72) rotate(90)" x="16" y="4" width="40" height="64" rx="2.2537" fill="none" stroke="#00a5ff" stroke-miterlimit="10" stroke-width=".1"/>
  <circle cx="36" cy="36" r="29" fill="none" stroke="#00a5ff" stroke-miterlimit="10" stroke-width=".1"/>
 </g>
 <g id="color">
  <path d="m36 7c-16.017 0-29 12.984-29 29 0 16.016 12.983 29 29 29s29-12.984 29-29c0-16.016-12.983-29-29-29zm0 39c-5.5225 0-10-4.4775-10-10s4.4775-10 10-10 10 4.4775 10 10-4.4775 10-10 10z" fill="#fcea2b"/>
  <path d="m36 46c5.5225 0 10-4.4775 10-10s-4.4775-10-10-10-10 4.4775-10 10c0 2.7266 1.0947 5.1963 2.8652 7h0.4786-0.4786c1.8145 1.8496 4.3389 3 7.1348 3z" fill="none"/>
  <path d="m46 36c0-5.5225-4.4775-10-10-10s-10 4.4775-10 10c0 2.7266 1.0947 5.1963 2.8652 7 1.8145 1.8496 4.3389 3 7.1348 3 5.5225 0 10-4.4775 10-10z" fill="none"/>
  <path d="m36 7c-16.017 0-29 12.984-29 29 0 1.7061 0.1563 3.375 0.4385 5h2.5615c2.7607 0 5 2.2383 5 5s2.2393 5 5 5 5-2.2383 5-5c0-1.6562 1.3428-3 3-3h0.8652c-1.7705-1.8037-2.8652-4.2734-2.8652-7 0-5.5225 4.4775-10 10-10s10 4.4775 10 10-4.4775 10-10 10c2.7607 0 5 2.2383 5 5s2.2393 5 5 5 5-2.2383 5-5c0-1.6562 1.3428-3 3-3s3 1.3438 3 3c0 1.2217 0.8418 2.3213 1.8945 2.7891 3.8223-4.9121 6.1055-11.082 6.1055-17.789 0-16.016-12.983-29-29-29z" fill="#a57939"/>
  <circle cx="14" cy="31" r="2" fill="#ea5a47" stroke-linecap="round" stroke-linejoin="round" stroke-miterlimit="10" stroke-width="2"/>
  <circle cx="20" cy="39" r="2" fill="#5c9e31" stroke-linecap="round" stroke-linejoin="round" stroke-miterlimit="10" stroke-width="2"/>
  <circle cx="52" cy="40" r="2" fill="#b399c8" stroke-linecap="round" stroke-linejoin="round" stroke-miterlimit="10" stroke-width="2"/>
  <circle cx="58" cy="32" r="2" fill="#f4aa41" stroke-linecap="round" stroke-linejoin="round" stroke-miterlimit="10" stroke-width="2"/>
  <circle cx="50" cy="25" r="2" fill="#ea5a47" stroke-linecap="round" stroke-linejoin="round" stroke-miterlimit="10" stroke-width="2"/>
  <circle cx="42" cy="14" r="2" fill="#92d3f5" stroke-linecap="round" stroke-linejoin="round" stroke-miterlimit="10" stroke-width="2"/>
  <circle cx="33" cy="20" r="2" fill="#f4aa41" stroke-linecap="round" stroke-linejoin="round" stroke-miterlimit="10" stroke-width="2"/>
  <circle cx="21" cy="20" r="2" fill="#b399c8" stroke-linecap="round" stroke-linejoin="round" stroke-miterlimit="10" stroke-width="2"/>
 </g>
 <g id="line" fill="none" stroke="#000" stroke-linecap="round" stroke-linejoin="round" stroke-miterlimit="10" stroke-width="2">
  <circle cx="14" cy="31" r="2"/>
  <circle cx="20" cy="39" r="2"/>
  <circle cx="52" cy="40" r="2"/>
  <circle cx="58" cy="32" r="2"/>
  <circle cx="50" cy="25" r="2"/>
  <circle cx="42" cy="14" r="2"/>
  <circle cx="33" cy="20" r="2"/>
  <circle cx="21" cy="20" r="2"/>
  <circle cx="36" cy="36" r="29"/>
  <circle cx="36" cy="36" r="10"/>
  <path d="m8 41h2c2.7607 0 5 2.2383 5 5s2.2393 5 5 5 5-2.2383 5-5c0-1.6562 1.3428-3 3-3h0.667"/>
  <path d="m58.825 53.761c-1.0732-0.456-1.8252-1.5214-1.8252-2.7607 0-1.6562-1.3428-3-3-3s-3 1.3438-3 3c0 2.7617-2.2393 5-5 5s-5-2.2383-5-5-2.2393-5-5-5"/>
 </g>
</svg>

<svg id="emoji" viewBox="0 0 72 72" xmlns="http://www.w3.org/2000/svg">
  <g id="grid">
    <path fill="#b3b3b3" d="M68,4V68H4V4H68m4-4H0V72H72V0Z"/>
    <path fill="none" stroke="#00a5ff" stroke-miterlimit="10" stroke-width="0.1" d="M12.923,10.9583H59.0769A1.9231,1.9231,0,0,1,61,12.8814V59.0352a1.9231,1.9231,0,0,1-1.9231,1.9231H12.9231A1.9231,1.9231,0,0,1,11,59.0352V12.8813A1.923,1.923,0,0,1,12.923,10.9583Z"/>
    <rect x="16" y="4" rx="2.2537" width="40" height="64" fill="none" stroke="#00a5ff" stroke-miterlimit="10" stroke-width="0.1"/>
    <rect x="16" y="4" rx="2.2537" width="40" height="64" transform="translate(72) rotate(90)" fill="none" stroke="#00a5ff" stroke-miterlimit="10" stroke-width="0.1"/>
    <circle cx="36" cy="36" r="29" fill="none" stroke="#00a5ff" stroke-miterlimit="10" stroke-width="0.1"/>
  </g>
  <g id="color">
    <path fill="#fcea2b" stroke="none" d="M36,7C19.9834,7,7,19.9839,7,36c0,16.0156,12.9834,29,29,29s29-12.9844,29-29C65,19.9839,52.0166,7,36,7z M36,46c-5.5225,0-10-4.4775-10-10s4.4775-10,10-10c5.5225,0,10,4.4775,10,10S41.5225,46,36,46z"/>
    <path fill="none" stroke="none" d="M36,46c5.5225,0,10-4.4775,10-10s-4.4775-10-10-10c-5.5225,0-10,4.4775-10,10 c0,2.7266,1.0947,5.1963,2.8652,7h0.4786h-0.4786C30.6797,44.8496,33.2041,46,36,46z"/>
    <path fill="none" stroke="none" d="M46,36c0-5.5225-4.4775-10-10-10c-5.5225,0-10,4.4775-10,10c0,2.7266,1.0947,5.1963,2.8652,7 c1.8145,1.8496,4.3389,3,7.1348,3C41.5225,46,46,41.5225,46,36z"/>
    <path fill="#f1b31c" stroke="none" d="M36,7C19.9834,7,7,19.9839,7,36c0,1.7061,0.1563,3.375,0.4385,5H10c2.7607,0,5,2.2383,5,5s2.2393,5,5,5 c2.7607,0,5-2.2383,5-5c0-1.6562,1.3428-3,3-3h0.8652C27.0947,41.1963,26,38.7266,26,36c0-5.5225,4.4775-10,10-10 c5.5225,0,10,4.4775,10,10s-4.4775,10-10,10c2.7607,0,5,2.2383,5,5s2.2393,5,5,5c2.7607,0,5-2.2383,5-5c0-1.6562,1.3428-3,3-3 c1.6572,0,3,1.3438,3,3c0,1.2217,0.8418,2.3213,1.8945,2.7891C62.7168,48.877,65,42.707,65,36C65,19.9839,52.0166,7,36,7z"/>
    <circle cx="14" cy="31" r="2" fill="#ea5a47" stroke="none" stroke-linecap="round" stroke-linejoin="round" stroke-miterlimit="10" stroke-width="2"/>
    <circle cx="20" cy="39" r="2" fill="#5c9e31" stroke="none" stroke-linecap="round" stroke-linejoin="round" stroke-miterlimit="10" stroke-width="2"/>
    <circle cx="52" cy="40" r="2" fill="#b399c8" stroke="none" stroke-linecap="round" stroke-linejoin="round" stroke-miterlimit="10" stroke-width="2"/>
    <circle cx="58" cy="32" r="2" fill="#f4aa41" stroke="none" stroke-linecap="round" stroke-linejoin="round" stroke-miterlimit="10" stroke-width="2"/>
    <circle cx="50" cy="25" r="2" fill="#ea5a47" stroke="none" stroke-linecap="round" stroke-linejoin="round" stroke-miterlimit="10" stroke-width="2"/>
    <circle cx="42" cy="14" r="2" fill="#92d3f5" stroke="none" stroke-linecap="round" stroke-linejoin="round" stroke-miterlimit="10" stroke-width="2"/>
    <circle cx="33" cy="20" r="2" fill="#f4aa41" stroke="none" stroke-linecap="round" stroke-linejoin="round" stroke-miterlimit="10" stroke-width="2"/>
    <circle cx="21" cy="20" r="2" fill="#b399c8" stroke="none" stroke-linecap="round" stroke-linejoin="round" stroke-miterlimit="10" stroke-width="2"/>
  </g>
  <g id="hair"/>
  <g id="skin"/>
  <g id="skin-shadow"/>
  <g id="line">
    <circle cx="14" cy="31" r="2" fill="none" stroke="#000000" stroke-linecap="round" stroke-linejoin="round" stroke-miterlimit="10" stroke-width="2"/>
    <circle cx="20" cy="39" r="2" fill="none" stroke="#000000" stroke-linecap="round" stroke-linejoin="round" stroke-miterlimit="10" stroke-width="2"/>
    <circle cx="52" cy="40" r="2" fill="none" stroke="#000000" stroke-linecap="round" stroke-linejoin="round" stroke-miterlimit="10" stroke-width="2"/>
    <circle cx="58" cy="32" r="2" fill="none" stroke="#000000" stroke-linecap="round" stroke-linejoin="round" stroke-miterlimit="10" stroke-width="2"/>
    <circle cx="50" cy="25" r="2" fill="none" stroke="#000000" stroke-linecap="round" stroke-linejoin="round" stroke-miterlimit="10" stroke-width="2"/>
    <circle cx="42" cy="14" r="2" fill="none" stroke="#000000" stroke-linecap="round" stroke-linejoin="round" stroke-miterlimit="10" stroke-width="2"/>
    <circle cx="33" cy="20" r="2" fill="none" stroke="#000000" stroke-linecap="round" stroke-linejoin="round" stroke-miterlimit="10" stroke-width="2"/>
    <circle cx="21" cy="20" r="2" fill="none" stroke="#000000" stroke-linecap="round" stroke-linejoin="round" stroke-miterlimit="10" stroke-width="2"/>
    <circle cx="36" cy="36" r="29" fill="none" stroke="#000000" stroke-linecap="round" stroke-linejoin="round" stroke-miterlimit="10" stroke-width="2"/>
    <circle cx="36" cy="36" r="10" fill="none" stroke="#000000" stroke-linecap="round" stroke-linejoin="round" stroke-miterlimit="10" stroke-width="2"/>
    <path fill="none" stroke="#000000" stroke-linecap="round" stroke-linejoin="round" stroke-miterlimit="10" stroke-width="2" d="M8,41h2c2.7607,0,5,2.2383,5,5s2.2393,5,5,5c2.7607,0,5-2.2383,5-5c0-1.6562,1.3428-3,3-3h0.667"/>
    <path fill="none" stroke="#000000" stroke-linecap="round" stroke-linejoin="round" stroke-miterlimit="10" stroke-width="2" d="M58.8252,53.7607C57.752,53.3047,57,52.2393,57,51c0-1.6562-1.3428-3-3-3c-1.6572,0-3,1.3438-3,3c0,2.7617-2.2393,5-5,5 c-2.7607,0-5-2.2383-5-5s-2.2393-5-5-5"/>
  </g>
</svg>
